X:1
T:Title
%%score { 1 | 2 }
L:1/8
M:4/4
K:F
V:1 treble nm="Grand Piano"
V:2 bass 
V:1
 z4 z2[Q:1/4=90] FG | AAAA A2 [Ac][Bd] | [Ac]FGA [EG]2 [EG][FA] | %3
 [GB][GB][GB][GB] [GB][GB][ce][FBd] | [Bd][Ac]FG A2 A[GB] | [Ac][Ac][Ac][Bd] [Ac]2 [Af][ce] | %6
 [ce]ddd [Ac]2 AA |[M:17/16] GAB[Bd][Bd][Ac]3/2FA |[M:4/4] [FA]GFE F4 | A<[Ac] F>G A2 AA | %10
 A<[Ac] F>A [EG]4 | [EB][EB][EB][EB] [GB][Ac][Bd][ce] | [Bd][Ac]FG A2 A[GB] | %13
 [Ac][Ac][Ac][Ac] [Ac][FA][Af][Fce] | [Fce][FBd][FBd][FBd] [FAc]2 [CFA][CFA] | %15
[M:17/16] [CEG][CFA][CGB][EBd][FBd][FAc]3/2[A,F][CFA] |[M:7/8] [CFA]GF E F3 |] %17
V:2
 z4 z2 [F,A,][F,B,F] | [F,CF][F,CF][F,CF][F,CF] [F,CF]2 [F,F][F,F] | %2
 [F,F][A,C][G,CE][F,CF] [C,C]2 [C,C][C,C] | [C,C][C,C][C,C][C,C] [C,C][C,C][C,C]C, | %4
 [F,F][F,F][F,A,][F,B,F] [F,CF]2 [F,CF][F,C] | [F,F][F,F][F,F][F,F] [F,F]2 [F,C][K:treble][A,F] | %6
 [B,F][B,FB][B,FB][B,FB] [F,F]2 [F,CF][F,CF] | %7
[M:17/16] [B,CE][A,CF][K:bass][G,CE][F,F][F,F][F,F]3/2[F,A,][F,CF] | %8
[M:4/4] [C,C][C,B,C][C,A,C][C,G,C] [F,A,C]4 | [F,CF]<[F,F] [F,A,]>[F,B,F] [F,CF]2 [F,CF][F,CF] | %10
 [F,CF]<[F,F] [F,A,]>[F,CF] [C,C]4 | [C,G,][C,G,][C,G,][C,G,] [C,C][C,C][C,C][C,C] | %12
 [F,C][F,F][F,A,][F,B,F] [F,CF]2 [F,CF][F,C] | [F,F][F,F][F,F][F,F] [F,F][F,C][F,C]A, | %14
 B,B,B,B, F,2 F,F, |[M:17/16] B,A,G,C,F,F,3/2F,F, |[M:7/8] C,[C,B,C][C,A,C] [C,G,C] [F,A,C]3 |] %17

